.local/share/icons/Gruvbox-Plus-Dark/panel/22/screencloud-uploading.svg

<svg xmlns="http://www.w3.org/2000/svg" width="22" height="22" version="1.1">
 <defs>
  <style id="current-color-scheme" type="text/css">
   .ColorScheme-Text { color:#ebdbb2; } .ColorScheme-Highlight { color:#458588; }
  </style>
 </defs>
 <path style="fill:currentColor" class="ColorScheme-Text" d="M 8.5,5 C 5.4624339,5 3,7.4624339 3,10.5 3.00244,10.720141 3.018091,10.939938 3.046875,11.158203 1.8250871,11.567585 1.0011893,12.711451 1,14 c 0,1.656854 1.3431458,3 3,3 l 14,0 c 1.656854,0 3,-1.343146 3,-3 C 20.9987,12.726732 20.193805,11.592982 18.992188,11.171875 18.996023,11.114646 18.998629,11.057341 19,11 19,8.790861 17.209139,7 15,7 14.335328,7.0015368 13.681516,7.1686818 13.097656,7.4863281 12.08199,5.9357523 10.353608,5.0010752 8.5,5 Z M 5.984375,7 C 6.537375,7 7,7.448 7,8 7,8.552 6.537375,9 5.984375,9 5.431375,9 5,8.552 5,8 5,7.448 5.432275,7 5.984375,7 Z M 11,8 l 0,0 3,5 -2,0 0,3 -2,0 0,-3 -2,0 z"/>
</svg>

<svg width="22" height="22" version="1.1" xmlns="http://www.w3.org/2000/svg">
  <defs>
    <style id="current-color-scheme" type="text/css">.ColorScheme-Text { color:#ebdbb2; } .ColorScheme-Highlight { color:#458588; } .ColorScheme-NeutralText { color:#fe8019; } .ColorScheme-PositiveText { color:#689d6a; } .ColorScheme-NegativeText { color:#fb4934; }</style>
  </defs>
  <path class="ColorScheme-Text" d="m8.5 5c-3.038 0-5.5 2.462-5.5 5.5 0.00244 0.2201 0.01809 0.4399 0.04688 0.6582-1.222 0.4094-2.046 1.553-2.047 2.842 0 1.657 1.343 3 3 3h14c1.657 0 3-1.343 3-3-0.0013-1.273-0.8062-2.407-2.008-2.828 0.003835-0.05723 0.006441-0.1145 0.007812-0.1719 0-2.209-1.791-4-4-4-0.6647 0.001537-1.318 0.1687-1.902 0.4863-1.016-1.551-2.744-2.485-4.598-2.486zm-2.516 2c0.553 0 1.016 0.448 1.016 1s-0.4626 1-1.016 1-0.9844-0.448-0.9844-1 0.4323-1 0.9844-1zm5.016 1 3 5h-2v3h-2v-3h-2z" fill="currentColor"/>
</svg>
